src/lib/packages/icons/src/assets/filled/folder-settings.svg

<svg width="24" height="24" viewBox="0 0 24 24" fill="none" xmlns="http://www.w3.org/2000/svg">
<path d="M13.02 13.5C13.02 14.052 12.573 14.5 12.02 14.5C11.468 14.5 11.0149 14.052 11.0149 13.5C11.0149 12.948 11.458 12.5 12.01 12.5H12.02C12.572 12.5 13.02 12.948 13.02 13.5ZM21 10V17C21 19 20 20 18 20H6C4 20 3 19 3 17V7C3 5 4 4 6 4H10L13 7H18C20 7 21 8 21 10ZM14.7839 13.502C14.7829 13.084 15.012 12.698 15.385 12.488L15.501 12.423L14.699 11.077L14.584 11.141C14.21 11.35 13.75 11.35 13.377 11.14C13.006 10.931 12.7781 10.547 12.7781 10.131C12.7781 10.059 12.7171 10 12.6431 10H11.3091C11.2351 10 11.1741 10.059 11.1741 10.131C11.1741 10.547 10.946 10.931 10.575 11.14C10.202 11.35 9.74192 11.351 9.36792 11.141C9.30492 11.105 9.22401 11.127 9.18701 11.188L8.51807 12.311C8.48107 12.372 8.50292 12.451 8.56592 12.487L8.56812 12.488C8.93912 12.697 9.16697 13.081 9.16797 13.496C9.16897 13.914 8.94012 14.301 8.56812 14.511L8.56689 14.512C8.50289 14.548 8.48207 14.627 8.51807 14.688L9.18701 15.81C9.22401 15.872 9.3049 15.893 9.3689 15.857C9.7419 15.648 10.202 15.648 10.575 15.858C10.946 16.067 11.1741 16.452 11.1731 16.868C11.1731 16.94 11.2331 16.999 11.3081 16.999H12.644C12.718 16.999 12.7791 16.941 12.7791 16.869C12.7791 16.453 13.0069 16.069 13.3779 15.86C13.7509 15.65 14.211 15.649 14.585 15.859C14.648 15.895 14.7301 15.873 14.7661 15.812L15.4351 14.689C15.4721 14.628 15.45 14.549 15.387 14.513L15.386 14.512C15.013 14.303 14.7839 13.918 14.7839 13.502Z" fill="currentColor"/>
</svg>

<svg xmlns="http://www.w3.org/2000/svg" width="24" height="24" fill="none"><path fill="currentColor" d="M13.02 13.5a1 1 0 0 1-1 1 1.005 1.005 0 0 1-1.005-1c0-.552.443-1 .995-1h.01a1 1 0 0 1 1 1ZM21 10v7c0 2-1 3-3 3H6c-2 0-3-1-3-3V7c0-2 1-3 3-3h4l3 3h5c2 0 3 1 3 3Zm-6.216 3.502a1.163 1.163 0 0 1 .601-1.014l.116-.065-.802-1.346-.115.064a1.238 1.238 0 0 1-1.207-.001 1.16 1.16 0 0 1-.599-1.009.134.134 0 0 0-.135-.131H11.31a.134.134 0 0 0-.135.131c0 .416-.228.8-.599 1.009-.373.21-.833.211-1.207.001a.135.135 0 0 0-.181.047l-.669 1.123a.127.127 0 0 0 .048.176l.002.001c.371.209.599.593.6 1.008.001.418-.228.805-.6 1.015l-.001.001a.127.127 0 0 0-.049.176l.669 1.122a.135.135 0 0 0 .182.047 1.236 1.236 0 0 1 1.206.001c.371.209.6.594.598 1.01 0 .072.06.131.135.131h1.336a.133.133 0 0 0 .135-.13c0-.416.228-.8.599-1.009.373-.21.833-.211 1.207-.001a.135.135 0 0 0 .181-.047l.67-1.123a.127.127 0 0 0-.049-.176l-.001-.001a1.16 1.16 0 0 1-.602-1.01Z"/></svg>
